images/decor-right.svg

<svg width="748" height="615" viewBox="0 0 748 615" fill="none" xmlns="http://www.w3.org/2000/svg">
<path d="M490.836 44.7985C489.339 46.2202 487.006 46.2659 485.455 44.9037C483.817 43.4647 483.637 40.9771 485.052 39.318L514.195 5.14592C516.572 2.35865 520.809 2.158 523.439 4.70815C526.028 7.21823 526.007 11.3782 523.393 13.8619L490.836 44.7985Z" fill="#F8D008"/>
<path d="M493.678 55.6933C492.537 56.2163 491.185 55.7901 490.55 54.7071C489.874 53.5549 490.248 52.0739 491.39 51.3805L511.96 38.8844C513.852 37.7349 516.322 38.4171 517.356 40.3749C518.387 42.3276 517.565 44.7456 515.558 45.6657L493.678 55.6933Z" fill="#F8D008"/>
<path d="M37.808 515.511C39.3043 514.089 41.638 514.043 43.1887 515.406C44.8268 516.845 45.0061 519.332 43.5912 520.991L14.4482 555.163C12.0711 557.951 7.83414 558.151 5.20431 555.601C2.61581 553.091 2.6369 548.931 5.25072 546.447L37.808 515.511Z" fill="#F8D008"/>
<path d="M34.9657 504.616C36.1069 504.093 37.4589 504.519 38.0939 505.602C38.7694 506.754 38.3955 508.235 37.254 508.929L16.6837 521.425C14.7914 522.574 12.3217 521.892 11.2877 519.934C10.2565 517.982 11.0782 515.564 13.0857 514.644L34.9657 504.616Z" fill="#F8D008"/>
<path d="M422 615C563.385 615 678 500.385 678 359C678 217.615 563.385 103 422 103C280.615 103 166 217.615 166 359C166 500.385 280.615 615 422 615Z" fill="url(#paint0_linear)"/>
<path d="M422 389.118C438.633 389.118 452.118 375.634 452.118 359C452.118 342.367 438.633 328.882 422 328.882C405.366 328.882 391.882 342.367 391.882 359C391.882 375.634 405.366 389.118 422 389.118Z" fill="#7173F0"/>
<path d="M422 178.294C322.199 178.294 241.294 259.199 241.294 359C241.294 458.801 322.199 539.706 422 539.706C521.801 539.706 602.706 458.801 602.706 359C602.706 259.199 521.801 178.294 422 178.294ZM422 464.412C363.782 464.412 316.588 417.217 316.588 359C316.588 300.783 363.782 253.588 422 253.588C480.217 253.588 527.412 300.783 527.412 359C527.412 417.217 480.217 464.412 422 464.412Z" fill="#7172F0"/>
<path d="M736.723 104.648L690.193 93.1901L678.735 46.6593C676.129 36.0749 662.957 32.4006 655.248 40.1087L605.462 89.8952C597.467 97.8894 594.235 109.481 596.937 120.459L609.975 173.406L662.923 186.444C673.901 189.147 685.492 185.914 693.486 177.92L743.273 128.134C750.981 120.425 747.308 107.254 736.723 104.648Z" fill="#7B7EF7"/>
<path d="M736.723 104.648L690.193 93.1901L678.735 46.6593C676.129 36.075 662.958 32.4017 655.25 40.1078L627.215 68.1433C619.22 76.1375 615.988 87.7298 618.69 98.7067L631.728 151.654L684.676 164.692C695.654 167.395 707.245 164.162 715.239 156.168L743.274 128.134C750.981 120.426 747.308 107.254 736.723 104.648Z" fill="#7B7EF7"/>
<path d="M736.723 104.648L690.193 93.19L678.735 46.6592C676.129 36.0759 662.959 32.4015 655.251 40.1066L648.965 46.3922C640.971 54.3864 637.739 65.9777 640.441 76.9556L653.479 129.903L706.427 142.941C717.405 145.644 728.996 142.411 736.99 134.417L743.273 128.134C750.981 120.425 747.308 107.254 736.723 104.648Z" fill="#7B7EF7"/>
<path d="M422 376.569C417.503 376.569 413.008 374.854 409.577 371.424C402.716 364.563 402.716 353.438 409.577 346.578L607.293 148.861C614.154 142 625.277 142 632.139 148.861C639 155.722 639 166.846 632.139 173.707L434.424 371.424C430.993 374.854 426.497 376.569 422 376.569Z" fill="#7173F0"/>
<defs>
<linearGradient id="paint0_linear" x1="153.953" y1="359" x2="672.117" y2="359" gradientUnits="userSpaceOnUse">
<stop stop-color="#7B75F1"/>
<stop offset="1" stop-color="#7A7FF9"/>
</linearGradient>
</defs>
</svg>

<svg width="748" height="615" fill="none" xmlns="http://www.w3.org/2000/svg"><path d="M490.836 44.798a3.99 3.99 0 01-5.784-5.48l29.143-34.172a6.344 6.344 0 119.198 8.716l-32.557 30.936zm2.842 10.895a2.445 2.445 0 01-2.288-4.313l20.57-12.496a3.845 3.845 0 113.598 6.782l-21.88 10.027zM37.808 515.511a3.988 3.988 0 015.783 5.48l-29.143 34.172a6.345 6.345 0 11-9.197-8.716l32.557-30.936zm-2.842-10.895a2.445 2.445 0 012.288 4.313l-20.57 12.496a3.845 3.845 0 11-3.598-6.781l21.88-10.028z" fill="#F8D008"/><path d="M422 615c141.385 0 256-114.615 256-256S563.385 103 422 103 166 217.615 166 359s114.615 256 256 256z" fill="url(#paint0_linear)"/><path d="M422 389.118c16.633 0 30.118-13.484 30.118-30.118 0-16.633-13.485-30.118-30.118-30.118-16.634 0-30.118 13.485-30.118 30.118 0 16.634 13.484 30.118 30.118 30.118z" fill="#7173F0"/><path d="M422 178.294c-99.801 0-180.706 80.905-180.706 180.706 0 99.801 80.905 180.706 180.706 180.706 99.801 0 180.706-80.905 180.706-180.706 0-99.801-80.905-180.706-180.706-180.706zm0 286.118c-58.218 0-105.412-47.195-105.412-105.412 0-58.217 47.194-105.412 105.412-105.412 58.217 0 105.412 47.195 105.412 105.412 0 58.217-47.195 105.412-105.412 105.412z" fill="#7172F0"/><path d="M736.723 104.648l-46.53-11.458-11.458-46.53c-2.606-10.585-15.778-14.26-23.487-6.551l-49.786 49.786a32.303 32.303 0 00-8.525 30.564l13.038 52.947 52.948 13.038a32.3 32.3 0 0030.563-8.524l49.787-49.786c7.708-7.709 4.035-20.88-6.55-23.486z" fill="#7B7EF7"/><path d="M736.723 104.648l-46.53-11.458-11.458-46.53c-2.606-10.585-15.777-14.258-23.485-6.552l-28.035 28.035a32.303 32.303 0 00-8.525 30.564l13.038 52.947 52.948 13.038a32.3 32.3 0 0030.563-8.524l28.035-28.034c7.707-7.708 4.034-20.88-6.551-23.486z" fill="#7B7EF7"/><path d="M736.723 104.648l-46.53-11.458-11.458-46.53c-2.606-10.584-15.776-14.258-23.484-6.553l-6.286 6.285a32.304 32.304 0 00-8.524 30.564l13.038 52.947 52.948 13.038a32.3 32.3 0 0030.563-8.524l6.283-6.283c7.708-7.709 4.035-20.88-6.55-23.486z" fill="#7B7EF7"/><path d="M422 376.569a17.515 17.515 0 01-12.423-5.145c-6.861-6.861-6.861-17.986 0-24.846l197.716-197.717c6.861-6.861 17.984-6.861 24.846 0 6.861 6.861 6.861 17.985 0 24.846L434.424 371.424A17.517 17.517 0 01422 376.569z" fill="#7173F0"/><defs><linearGradient id="paint0_linear" x1="153.953" y1="359" x2="672.117" y2="359" gradientUnits="userSpaceOnUse"><stop stop-color="#7B75F1"/><stop offset="1" stop-color="#7A7FF9"/></linearGradient></defs></svg>
